assets/icon-leather.svg

<svg
  class="icon icon-accordion icon-leather"

  focusable="false"
  xmlns="http://www.w3.org/2000/svg"


  viewBox="0 0 20 20"
>
  <path d="M7.97895 1.55555C7.75602 1.55555 7.55049 1.71237 7.49305 1.94762L7.49123 1.95509C7.42498 2.21019 7.33959 2.53757 7.21755 2.85227C7.09741 3.16208 6.92519 3.50498 6.66011 3.77111C5.94871 4.49525 4.9347 4.58069 4.15302 4.58069C3.86517 4.58069 3.57871 4.54519 3.29458 4.47515C3.24995 4.46626 3.17168 4.45029 3.08678 4.41925C3.02446 4.40156 2.97878 4.39485 2.93608 4.39485C2.85763 4.39485 2.77367 4.41506 2.69931 4.45229C2.58049 4.51177 2.49244 4.61426 2.45245 4.74393L2.08187 5.96006C1.99969 6.23376 2.14791 6.5108 2.40926 6.59694C3.06631 6.80864 3.64401 7.16273 4.12596 7.64524C5.79603 9.31728 5.79603 12.0249 4.12596 13.697L4.1207 13.7022C3.70656 14.1053 3.22471 14.4375 2.66344 14.653C2.42776 14.7449 2.29223 15.0137 2.37026 15.2777L2.3694 15.275L2.37085 15.2797L2.37026 15.2777L2.92436 17.0653L2.92291 17.061L2.92626 17.0715L2.92436 17.0653C2.97736 17.22 3.1002 17.3437 3.23664 17.3938C3.23134 17.3924 3.22591 17.3909 3.22032 17.3894L3.24853 17.3979C3.24455 17.3966 3.24059 17.3952 3.23664 17.3938C3.31908 17.4155 3.36721 17.4222 3.41048 17.4222C3.49912 17.4222 3.60995 17.3887 3.70246 17.3233C3.98945 17.1198 4.30448 16.9574 4.6125 16.8318L4.61978 16.8288C5.10547 16.639 5.61461 16.5446 6.14334 16.5446C7.11309 16.5446 8.05549 16.8874 8.79764 17.4889L8.80712 17.4966L8.81955 17.5076C8.90806 17.5864 9.00821 17.6755 9.10985 17.7768C9.10724 17.7743 9.10462 17.7719 9.10199 17.7695L9.11722 17.7841C9.11476 17.7817 9.11231 17.7792 9.10985 17.7768C9.26909 17.925 9.40178 18.0826 9.51863 18.2455L9.51488 18.2407L9.52415 18.2532C9.52231 18.2507 9.52048 18.2481 9.51863 18.2455C9.61654 18.3713 9.76885 18.4444 9.91772 18.4444V19.4999C9.42913 19.4999 8.96472 19.2651 8.67058 18.8776L8.66585 18.8714L8.66131 18.865C8.57515 18.7443 8.48502 18.6386 8.38216 18.5436L8.3744 18.5364L8.36693 18.5289C8.28943 18.4513 8.21077 18.3808 8.12058 18.3006C8.12363 18.303 8.12667 18.3055 8.12971 18.3079L8.11112 18.2921C8.11428 18.295 8.11744 18.2978 8.12058 18.3006C7.56475 17.8535 6.86093 17.6002 6.14334 17.6002C5.74527 17.6002 5.36861 17.6705 5.00975 17.8102L5.01345 17.8087L5.00616 17.8116L5.00975 17.8102C4.7622 17.9115 4.52249 18.0371 4.31551 18.1839C4.05739 18.3663 3.73435 18.4778 3.41048 18.4778C3.22966 18.4778 3.07494 18.4441 2.94062 18.4074L2.9264 18.4036L2.91241 18.3989C2.43607 18.2399 2.07057 17.8518 1.91799 17.3935L1.91453 17.3831L1.35631 15.5819C1.12631 14.8143 1.50604 13.9695 2.27996 13.6691L2.28202 13.6683C2.68845 13.5124 3.05095 13.2676 3.37829 12.9495L3.37567 12.9522L3.38096 12.9469L3.37829 12.9495C4.63437 11.6891 4.6335 9.64934 3.37567 8.39003C3.01234 8.02628 2.57987 7.76103 2.08252 7.60098L2.08001 7.60016C1.26969 7.33494 0.820566 6.47637 1.06787 5.6562L1.06832 5.65473L1.43956 4.43642L1.43993 4.43521C1.565 4.02823 1.84814 3.69722 2.22417 3.50898C2.43856 3.40166 2.68453 3.3393 2.93608 3.3393C3.11661 3.3393 3.27314 3.37268 3.40855 3.41335L3.43121 3.42015L3.45248 3.42867C3.45248 3.42867 3.45629 3.42989 3.46231 3.4314C3.47374 3.43427 3.48719 3.43707 3.51473 3.44259L3.52713 3.44507L3.5394 3.44814C3.746 3.49985 3.95026 3.52514 4.15302 3.52514C4.91759 3.52514 5.52295 3.42089 5.9046 3.03158L5.90806 3.02805C6.02355 2.91242 6.13155 2.72544 6.22996 2.47166C6.32632 2.22316 6.39772 1.95396 6.46528 1.69386L6.46427 1.69798L6.46615 1.69052L6.46528 1.69386C6.63616 1.00201 7.25456 0.5 7.97895 0.5H11.609C12.3348 0.5 12.9542 1.00401 13.1237 1.69798L13.1242 1.70013C13.1834 1.94725 13.2587 2.21702 13.359 2.46369C13.4616 2.71581 13.5762 2.90808 13.696 3.02807C14.1211 3.45365 14.7781 3.68003 15.4455 3.68003C15.5631 3.68003 15.6809 3.67176 15.7991 3.65507C16.0139 3.6203 16.225 3.56054 16.415 3.47834C16.6179 3.38568 16.8361 3.3393 17.0543 3.3393C17.2747 3.3393 17.4951 3.38664 17.6997 3.48119C18.0942 3.66348 18.4093 4.00233 18.5392 4.44215L18.9305 5.59736L18.9334 5.60717C19.0547 6.01723 19.0121 6.46746 18.7906 6.84757C18.5695 7.22709 18.1953 7.48993 17.7778 7.58282L17.7709 7.58435C17.5695 7.62636 17.3676 7.69501 17.1451 7.78185C16.7638 7.95199 16.4097 8.19235 16.1092 8.49326C15.4747 9.1285 15.1188 9.97588 15.1188 10.8775C15.1188 11.7824 15.4665 12.6274 16.1066 13.2593L16.1092 13.2619C16.4842 13.6374 16.929 13.9137 17.4287 14.0838C18.1828 14.3325 18.7843 15.188 18.5193 16.05L18.0759 17.4952L18.0752 17.4976C17.9207 17.9926 17.544 18.3705 17.0476 18.5259L17.0418 18.5277C16.9097 18.5673 16.7524 18.6017 16.5797 18.6017C16.2411 18.6017 15.898 18.4939 15.6144 18.273L15.6108 18.2702C15.3991 18.1024 15.1801 17.9708 14.9427 17.865L14.9447 17.8659L14.9408 17.8641L14.9427 17.865C14.5354 17.688 14.1132 17.6002 13.6715 17.6002C12.9507 17.6002 12.2587 17.8453 11.7065 18.2988L11.7141 18.2921L11.6994 18.3047C11.7018 18.3028 11.7041 18.3008 11.7065 18.2988L11.4477 18.5292C11.4511 18.5257 11.4547 18.5221 11.4582 18.5186L11.4356 18.5399L11.4477 18.5292C11.3396 18.6384 11.2492 18.7459 11.1669 18.8609C11.1682 18.8589 11.1695 18.857 11.1708 18.8551L11.1639 18.865L11.1669 18.8609C10.8858 19.2703 10.4109 19.4975 9.92545 19.4999L9.92546 18.4444H9.91772C10.0873 18.4444 10.2255 18.3642 10.2941 18.2632L10.3009 18.2532C10.4214 18.0843 10.5538 17.9281 10.7079 17.7738L10.7189 17.7628L11.0162 17.4983L11.0237 17.4921C11.7696 16.8756 12.7042 16.5446 13.6715 16.5446C14.2604 16.5446 14.8275 16.663 15.3684 16.8985L15.3723 16.9002C15.6902 17.0416 15.9855 17.219 16.2676 17.4422L16.2662 17.4411L16.2698 17.444L16.2676 17.4422C16.355 17.5098 16.4651 17.5461 16.5797 17.5461C16.6128 17.5461 16.6607 17.5394 16.7332 17.5179L16.7305 17.5187L16.7363 17.517L16.7332 17.5179C16.895 17.4664 17.0122 17.3494 17.0638 17.185L17.5069 15.741C17.5716 15.5306 17.412 15.1893 17.0951 15.0856L17.0895 15.0838C16.4357 14.8617 15.8506 14.4986 15.3602 14.008L15.3615 14.0093L15.3589 14.0067L15.3602 14.008C14.5161 13.1739 14.0599 12.0577 14.0599 10.8775C14.0599 9.69362 14.529 8.57933 15.3589 7.74846C15.7569 7.34998 16.2242 7.03443 16.7259 6.81248L16.7363 6.80786L16.747 6.80369C16.9934 6.70716 17.2611 6.61261 17.5499 6.55201L17.5472 6.55261L17.5541 6.55113L17.5499 6.55201C17.6881 6.52047 17.8079 6.43273 17.875 6.3174C17.9411 6.20409 17.9608 6.05889 17.9202 5.91414L17.924 5.92537L17.9178 5.90587C17.9187 5.90862 17.9195 5.91138 17.9202 5.91414L17.5282 4.75688L17.5247 4.74458C17.4871 4.61282 17.3921 4.50249 17.2544 4.43887C17.1909 4.40952 17.1226 4.39485 17.0543 4.39485C16.9859 4.39485 16.9176 4.40953 16.8541 4.43887L16.8433 4.44383C16.5614 4.56653 16.2601 4.6503 15.9626 4.69796L15.9538 4.69937C15.7847 4.72356 15.6152 4.73559 15.4455 4.73559C14.5661 4.73559 13.6138 4.4417 12.9457 3.77286C12.684 3.51084 12.5047 3.17239 12.3778 2.86025C12.2488 2.54315 12.1592 2.21564 12.0947 1.94676C12.037 1.71199 11.8317 1.55555 11.609 1.55555H7.97895Z"/>
</svg>

<svg xmlns="http://www.w3.org/2000/svg" class="icon icon-accordion icon-leather" viewBox="0 0 20 20"><path d="M7.979 1.556a.506.506 0 0 0-.486.392l-.002.007a8 8 0 0 1-.273.897c-.12.31-.293.653-.558.92-.711.723-1.725.809-2.507.809q-.432 0-.858-.106a1.4 1.4 0 0 1-.208-.056.5.5 0 0 0-.15-.024.54.54 0 0 0-.238.057.48.48 0 0 0-.247.292l-.37 1.216a.51.51 0 0 0 .327.637 4.281 4.281 0 0 1 1.717 7.1l-.005.005a4.3 4.3 0 0 1-1.458.951.51.51 0 0 0-.293.625v-.003.005-.002l.554 1.787-.001-.004.003.01-.002-.006a.54.54 0 0 0 .313.329l-.017-.005.029.009-.012-.004c.082.022.13.028.173.028.09 0 .2-.033.292-.099.287-.203.602-.366.91-.491l.008-.003q.73-.285 1.523-.284c.97 0 1.912.342 2.655.944l.01.008.012.01c.088.08.188.168.29.27l-.008-.008.015.015-.007-.007c.16.148.292.306.409.468l-.004-.004.01.012q-.005-.003-.006-.008c.098.126.25.2.399.2V19.5c-.489 0-.953-.235-1.247-.622l-.005-.007-.005-.006a2 2 0 0 0-.279-.321l-.008-.008-.007-.007a6 6 0 0 0-.246-.228l.009.007-.019-.016.01.009a3.17 3.17 0 0 0-1.978-.7q-.596 0-1.133.21l.003-.002-.007.003.004-.002a3.5 3.5 0 0 0-.694.374 1.6 1.6 0 0 1-.906.294c-.18 0-.335-.034-.47-.07l-.014-.004-.014-.005a1.6 1.6 0 0 1-.994-1.006l-.003-.01-.559-1.801c-.23-.768.15-1.613.924-1.913h.002c.406-.157.769-.401 1.096-.72l-.002.003.005-.005-.003.003A3.228 3.228 0 0 0 2.083 7.6H2.08a1.565 1.565 0 0 1-1.012-1.945v-.001l.372-1.219c.125-.408.408-.739.784-.927a1.6 1.6 0 0 1 .712-.17c.18 0 .337.034.473.074l.022.007.021.009.01.002.053.012.012.002.012.003q.31.077.614.077c.765 0 1.37-.104 1.752-.493l.003-.004q.175-.175.322-.556c.096-.249.168-.518.235-.778v.004l.001-.007v.003C6.635 1.002 7.254.5 7.978.5h3.63c.726 0 1.345.504 1.515 1.198V1.7c.06.247.135.517.235.764.103.252.217.444.337.564.425.426 1.082.652 1.75.652q.176 0 .353-.025a2.6 2.6 0 0 0 .616-.177 1.54 1.54 0 0 1 1.285.003c.394.182.71.521.84.961l.39 1.155.003.01c.122.41.08.86-.142 1.24s-.596.643-1.013.736l-.007.001c-.201.042-.403.111-.626.198-.381.17-.735.41-1.036.711a3.36 3.36 0 0 0-.99 2.384c0 .905.348 1.75.988 2.382l.002.003c.375.375.82.652 1.32.822.754.248 1.355 1.104 1.09 1.966l-.443 1.445v.003a1.55 1.55 0 0 1-1.028 1.028l-.006.002c-.132.04-.29.074-.462.074a1.57 1.57 0 0 1-.966-.329l-.003-.003a3 3 0 0 0-.668-.405h.002-.004.002a3.15 3.15 0 0 0-1.271-.265c-.721 0-1.413.245-1.966.699l.008-.007-.015.013.008-.006-.26.23.011-.01-.022.02.012-.01a3 3 0 0 0-.277.326l-.007.01.003-.004c-.281.41-.756.636-1.242.639v-1.056h-.007c.17 0 .308-.08.376-.18l.007-.01c.12-.17.253-.326.407-.48l.01-.011.298-.265.008-.006a4.15 4.15 0 0 1 2.648-.947c.588 0 1.156.118 1.696.353l.004.002c.318.142.614.319.896.542h-.002l.004.002-.002-.002a.5.5 0 0 0 .312.104.6.6 0 0 0 .153-.028h-.003l.006-.001h-.003a.5.5 0 0 0 .33-.332l.444-1.444c.065-.21-.095-.552-.412-.655l-.005-.002a4.46 4.46 0 0 1-1.73-1.076l.002.001-.003-.002.001.001a4.37 4.37 0 0 1-1.3-3.13c0-1.184.469-2.299 1.299-3.13a4.5 4.5 0 0 1 1.367-.936l.01-.004.011-.004a5 5 0 0 1 .803-.252h-.003.007-.004a.5.5 0 0 0 .325-.235.52.52 0 0 0 .045-.403l.004.011-.006-.02.002.01-.392-1.158-.003-.012a.48.48 0 0 0-.27-.306.48.48 0 0 0-.4 0l-.012.005a3.7 3.7 0 0 1-.88.254l-.01.001q-.252.037-.508.037c-.879 0-1.831-.294-2.5-.963-.261-.262-.44-.6-.567-.913a6.4 6.4 0 0 1-.283-.913.506.506 0 0 0-.486-.391z"/></svg>
